packages/katcn/src/icons/svg/speakers-solid.svg

<svg width="24" height="25" viewBox="0 0 24 25" fill="none" xmlns="http://www.w3.org/2000/svg">
<path d="M17.221 1.20801H6.67956C4.59116 1.20801 3 2.90801 3 4.90801V19.408C3 21.508 4.59116 23.208 6.67956 23.208H17.3204C19.3094 23.208 21 21.508 21 19.508V4.90801C20.9006 2.90801 19.3094 1.20801 17.221 1.20801Z" fill="black"/>
<path d="M12 18.508C9.50002 18.508 7.40002 16.508 7.40002 13.908C7.40002 11.308 9.40002 9.30801 12 9.30801C14.5 9.30801 16.6 11.308 16.6 13.908C16.6 16.508 14.5 18.508 12 18.508ZM12 11.408C10.6 11.408 9.40002 12.508 9.40002 14.008C9.40002 15.408 10.5 16.608 12 16.608C13.5 16.608 14.6 15.508 14.6 14.008C14.6 12.608 13.4 11.408 12 11.408Z" fill="white"/>
<path d="M14.7 7.90802H9.29999C8.69999 7.90802 8.29999 7.50802 8.29999 6.90802C8.29999 6.30802 8.69999 5.90802 9.29999 5.90802H14.6C15.2 5.90802 15.6 6.30802 15.6 6.90802C15.6 7.50802 15.2 7.90802 14.7 7.90802Z" fill="white"/>
</svg>

<svg xmlns="http://www.w3.org/2000/svg" fill="none" viewBox="0 0 24 25"><path fill="#000" d="M17.221 1.208H6.68c-2.089 0-3.68 1.7-3.68 3.7v14.5c0 2.1 1.591 3.8 3.68 3.8h10.64c1.99 0 3.68-1.7 3.68-3.7v-14.6c-.1-2-1.69-3.7-3.779-3.7"/><path fill="#fff" d="M12 18.508c-2.5 0-4.6-2-4.6-4.6s2-4.6 4.6-4.6c2.5 0 4.6 2 4.6 4.6s-2.1 4.6-4.6 4.6m0-7.1c-1.4 0-2.6 1.1-2.6 2.6 0 1.4 1.1 2.6 2.6 2.6s2.6-1.1 2.6-2.6c0-1.4-1.2-2.6-2.6-2.6m2.7-3.5H9.3c-.6 0-1-.4-1-1s.4-1 1-1h5.3c.6 0 1 .4 1 1s-.4 1-.9 1"/></svg>
